X:1
T:Machet die Tore weit
T:Jakob Heinrich Lützel
T:Machet die Tore weit
T:24. Psalm
T:CPDL   —   Creative Commons Attribution Non Commercial 3.0
T:CPDL   —   Creative Commons Attribution Non Commercial 3.0
T:CPDL   —   Creative Commons Attribution Non Commercial 3.0
T:CPDL   —   Creative Commons Attribution Non Commercial 3.0
T:CPDL   —   Creative Commons Attribution Non Commercial 3.0
T:CPDL   —   Creative Commons Attribution Non Commercial 3.0
C:Jakob Heinrich Lützel
Z:CPDL   —   Creative Commons Attribution Non Commercial 3.0
%%score [ ( 1 2 ) ( 3 4 ) ( 5 6 ) ]
L:1/8
Q:1/4=90
M:4/4
K:Bb
V:1 treble nm="Sopran\nAlt" snm="S\nA"
V:2 treble 
V:3 treble-8 nm="Tenor" snm="T"
V:4 treble-8 
V:5 bass nm="Bass" snm="B"
V:6 bass 
V:1
"^Lebhaft" z8 | z4 z2!f! dd | e2 d2 c2 B2 | A4!<(! B3 B!<)! | !^!c4 | d4 | !breath!!^!f4!p! c2 c2 | %7
w: |und die|Tü- ren in der|Welt ma- chet|hoch,|hoch,|hoch, dass der|
 d4 c2 c2 | B4 A2 A2 |!>(! G8!>)! | F4 z4 |!mf! F2 FF G2 A2 | B4 B2 B2 | %13
w: Kö- nig der|Eh- ren ein-|zie-|he!|Wer ist der- sel- be|Kö- nig der|
!<(! (([GB]4!<)!!>(! [Ac]4))!>)! | [Bd]4 z4 | z8 | z8 | z8 | z2!mf!!<(! A2 A2 A2!<)! | B4!f! c3 c | %20
w: Eh- *|ren?||||Es ist der|Herr, stark und|
 !>!d2 B2 z2!f! B2 | d4 [Be]3 [Be] | [Bf]2 [Bd]2 z2!ff! f2 | [eg]4 f3 f | e4 d2 d2 |!>(! c8!>)! | %26
w: mäch- tig, der|Herr, stark und|mäch- tig, der|Herr, stark und|mäch- tig im|Strei-|
 B4 z4 | z4 z2!f! dd | e2 d2 c2 B2 | A4 B3 B | !^!c4 d4 | !breath!!^!f4!p! c2 c2 | d4 c2 c2 | %33
w: te!|und die|Tü- ren in der|Welt ma- chet|hoch, hoch,|hoch, dass der|Kö- nig der|
 B4 A2 A2 |!>(! G8!>)! | F4 z4 |!mf! F2 FF G2 A2 | B4 B2 B2 |!<(! (([GB]4!<)!!>(! [Ac]4))!>)! | %39
w: Eh- ren ein-|zie-|he!|Wer ist der- sel- be|Kö- nig der|Eh- *|
 [Bd]4 z4 | z8 | z8 | z8 | z2!mf! A2"^cresc." A2 A2 | B4 c3 c | d6!f! B2 | d4 [Be]3 [Be] | %47
w: ren?||||Es ist der|Herr Ze- ba-|oth, der|Herr Ze- ba-|
 [Bf]6 z2 |!ff! [eg]4 f2 f2 | e4 d2 d2 | c8 | !fermata!B6 z2 |] %52
w: oth;|er ist der|Kö- nig der|Eh-|ren!|
V:2
 x8 | x4 x2 FF | E2 F2 G2 F2 | F4 F3 D | F4 | F4 | A4 F2 F2 | F4 F2 F2 | (D2 =E2) F2 F2 | %9
 (F4 =E4) | F4 x4 | F2 FF G2 A2 | B4 B2 G2 | E8 | [B,F]4 x4 | x8 | x8 | x8 | x2 ^F2 F2 F2 | %19
 D4 =F3 F | F2 D2 x2 F2 | B4 G3 G | F2 F2 x2 B2 | B4 B3 B | (G2 A2) B2 B2 | (B4 A4) | F4 x4 | %27
 x4 x2 FF | E2 F2 G2 F2 | F4 F3 D | F4 F4 | A4 F2 F2 | F4 F2 F2 | (D2 =E2) F2 F2 | (F4 =E4) | %35
 F4 x4 | F2 FF G2 A2 | B4 B2 G2 | E8 | [B,F]4 x4 | x8 | x8 | x8 | x2 ^F2 F2 F2 | D4 =F3 F | F6 F2 | %46
 B4 G3 G | F6 x2 | [GB]4 B2 B2 | (G2 A2) B2 B2 | (B4 A4) | F6 x2 |] %52
V:3
!f! B,2 DF B2 c2 | d6 BB | B2 B2 B2 d2 | e4!<(! d3 B!<)! | !^!A4 | B3 B | !breath!!^!c4!p! A2 A2 | %7
w: Ma- chet die To- re|weit, und die|Tü- ren in der|Welt ma- chet|hoch,|ma- chet|hoch, dass der|
 B4 A2 A2 | B4 c2 c2 |!>(! (d4 c2 B2)!>)! | A4 z4 | z8 | z8 | z8 | z8 |!mf! B2 BB A2 G2 | %16
w: Kö- nig der|Eh- ren ein-|zie- * *|he!|||||Wer ist der- sel- be|
 c4 c2 d2 |!<(! e8!<)! |!>(! d4!>)! z2!mf! d2 | B4!f! A3 A | !>!B2 B2 z2!f! d2 | f4 g3 e | %22
w: Kö- nig der|Eh-|ren? der|Herr, stark und|mäch- tig, der|Herr, stark und|
 d2 d2 z2!ff! d2 | e4 d3 d | e4 f2 f2 |!>(! (g4 f2 e2)!>)! | !breath!d2!f! DF B2 c2 | d6 BB | %28
w: mäch- tig, der|Herr, stark und|mäch- tig im|Strei- * *|te! Macht die To- re|weit, und die|
 B2 B2 B2 d2 | e4 d3 B | !^!A4 B3 B | !breath!!^!c4!p! A2 A2 | B4 A2 A2 | B4 c2 c2 | %34
w: Tü- ren in der|Welt ma- chet|hoch, ma- chet|hoch, dass der|Kö- nig der|Eh- ren ein-|
!>(! (d4 c2 B2)!>)! | A4 z4 | z8 | z8 | z8 | z8 |!mf! B2 BB A2 G2 | c4 c2 d2 | e8 | d4 z2 d2 | %44
w: zie- * *|he!|||||Wer ist der- sel- be|Kö- nig der|Eh-|ren? der|
 B4 A3 A | !breath!B2 B2 B2!f! d2 | f4 g3 e | [Bd]6 z2 |!ff! e4 d2 d2 | e4 f2 f2 | %50
w: Herr Ze- ba-|oth, es ist der|Herr Ze- ba-|oth;|er ist der|Kö- nig der|
 (g4!>(! f2 e2)!>)! | !fermata!d6 z2 |] %52
w: Eh- * *|ren!|
V:4
 x8 | x8 | x8 | x8 | x4 | x4 | x8 | x8 | x8 | x8 | x8 | x8 | x8 | x8 | x8 | x8 | x6 B2 | (c4 B4) | %18
 A4 x2 x2 | x8 | x8 | x8 | x8 | x8 | x8 | x8 | x8 | x8 | x8 | x8 | x8 | x8 | x8 | x8 | x8 | x8 | %36
 x8 | x8 | x8 | x8 | x8 | x6 B2 | (c4 B4) | A4 x2 x2 | x8 | x8 | x8 | x8 | x8 | x8 | x8 | x8 |] %52
V:5
!f! B,,2 D,F, B,2 [F,A,]2 | B,6 B,A, | G,2 F,2 E,2 D,2 | C,4!<(! B,,3 B,,!<)! | !^!F,4 | B,3 B, | %6
w: ||||||
 !breath!!^!F,4!p! F,2 F,2 | B,4 F,2 F,2 | G,4 A,2 A,,2 |!>(! (B,,4 C,4)!>)! | F,4 z4 | z8 | z8 | %13
w: |||||||
 z8 | z8 |!mf! B,2 B,B, A,2 G,2 | C4 C2 G,2 | [C,G,]8 |!>(! ^F,4!>)! z2!mf! D,2 | G,4!f! =F,3 F, | %20
w: |||||||
 !>!B,2 B,,2 z2!f! B,2 | [B,,B,]4 [B,,B,]3 [B,,B,] | [B,,B,]2 [B,,B,]2 z2!ff! B,2 | %23
w: |||
 E,4 [B,,B,]3 [B,,B,] | [C,C]4 [D,D]2 [B,,B,]2 |!>(! (([E,,E,]4 [F,,F,]4))!>)! | %26
w: |||
 !breath!B,,2!f! D,F, B,2 [F,A,]2 | B,6 B,A, | G,2 F,2 E,2 D,2 | C,4 B,,3 B,, | !^!F,4 B,3 B, | %31
w: |||||
 !breath!!^!F,4!p! F,2 F,2 | B,,4 F,2 F,2 | G,4 A,2 A,,2 |!>(! (B,,4 C,4)!>)! | F,4 z4 | z8 | z8 | %38
w: |||||||
 z8 | z8 |!mf! B,2 B,B, A,2 G,2 | C4 C2 G,2 | [C,G,]8 | ^F,4 z2 D,2 | G,4 =F,3 F, | B,,6!f! B,2 | %46
w: ||||||||
 B,4 [B,,B,]3 [B,,B,] | !breath!B,2!ff! B,,2 D,2 B,,2 | E,4 [B,,B,]4 | [C,C]4 [D,D]2 [B,,B,]2 | %50
w: |* er ist der|Herr und|Kö- nig der|
 ([E,,E,]4!>(! [F,,F,]4)!>)! | !fermata![B,,B,]6 z2 |] %52
w: Eh- *|ren!|
V:6
 x8 | x8 | x8 | x8 | x4 | x4 | x8 | x8 | x8 | x8 | x8 | x8 | x8 | x8 | x8 | x8 | x8 | x8 | %18
 D,4 x2 x2 | x8 | x8 | x8 | x8 | x8 | x8 | x8 | x8 | x8 | x8 | x8 | x8 | x8 | x8 | x8 | x8 | x8 | %36
 x8 | x8 | x8 | x8 | x8 | x8 | x8 | D,4 x2 x2 | x8 | x8 | x8 | x8 | x8 | x8 | x8 | x8 |] %52

